images/raw_icons/category-misc.svg

<?xml version="1.0" encoding="UTF-8"?>
<svg width="24px" height="24px" viewBox="0 0 24 24" version="1.1" xmlns="http://www.w3.org/2000/svg" xmlns:xlink="http://www.w3.org/1999/xlink">
    <title>Topic-Icons/28_a Copy</title>
    <g id="Topic-Icons/28_a-Copy" stroke="none" stroke-width="1" fill="none" fill-rule="evenodd">
        <path d="M11.52,1 L11.52,3.006 L4,3.006 L4,7.985 L11.52,7.985 L11.52,9.983 L7.03,9.983 L4,12.471 L7.03,14.961 L11.52,14.961 L11.52,22.024 L12.52,22.024 L12.52,14.961 L20.039,14.961 L20.039,9.983 L12.52,9.983 L12.52,7.985 L17.01,7.985 L20.039,5.496 L17.01,3.006 L12.52,3.006 L12.52,1 L11.52,1 Z M5,4.007 L16.652,4.007 L18.464,5.496 L16.652,6.985 L5,6.985 L5,4.007 Z M5.575,12.471 L7.388,10.983 L19.04,10.983 L19.04,13.961 L7.388,13.961 L5.575,12.471 Z" id="Fill-1" fill="#000000"></path>
    </g>
</svg>

<?xml version="1.0" encoding="utf-8"?>
<!-- Generator: Adobe Illustrator 27.5.0, SVG Export Plug-In . SVG Version: 6.00 Build 0)  -->
<svg version="1.1" id="Ebene_1" xmlns="http://www.w3.org/2000/svg" xmlns:xlink="http://www.w3.org/1999/xlink" x="0px" y="0px"
	 viewBox="0 0 24 24" style="enable-background:new 0 0 24 24;" xml:space="preserve">
<style type="text/css">
	.st0{fill-rule:evenodd;clip-rule:evenodd;}
</style>
<g id="Topic-Icons_x2F_28_x5F_a">
	<path id="Fill-1" class="st0" d="M11.5,1v2H4v5h7.5v2H7l-3,2.5L7,15h4.5V22h1V15H20v-5h-7.5V8H17l3-2.5L17,3h-4.5V1H11.5z M5,4
		h11.7l1.8,1.5L16.7,7H5V4z M5.6,12.5L7.4,11H19v3H7.4L5.6,12.5z"/>
</g>
</svg>
